markup/images/icon45.svg

<svg xmlns="http://www.w3.org/2000/svg" width="34" height="34"><path fill-rule="evenodd" fill="#FFF" d="M33.693 29.985l-5.827-5.826a1.043 1.043 0 0 0-.9-.294l-2.099-2.1a43.401 43.401 0 0 0-.325-2.264c3.435-.641 6.156-3.445 6.589-7.018a.499.499 0 0 0-.989-.12 7.109 7.109 0 0 1-1.786 3.917 7.084 7.084 0 0 1-1.838-4.787c0-1.791.649-3.472 1.838-4.787a7.106 7.106 0 0 1 1.786 3.917.499.499 0 0 0 .989-.12 8.15 8.15 0 0 0-8.088-7.157 8.1 8.1 0 0 0-4.305 1.234 13.571 13.571 0 0 0-.664-.718l-.027-.028-.011-.011C15.969 1.761 13.34.436 10.629.09 7.906-.257 5.328.407 3.37 1.961a.497.497 0 1 0 .619.78C7.662-.174 13.403.599 17.342 4.538l.006.005.02.021a15.265 15.265 0 0 1 .556.597 8.171 8.171 0 0 0-.495.434.507.507 0 0 0-.055.049l-.031.035a8.265 8.265 0 0 0-.245.25 11.879 11.879 0 0 0-.552-.593l-.001-.001h-.001a11.33 11.33 0 0 0-3.255-2.286c-1.766-.816-3.642-1.1-5.353-.825a.477.477 0 0 0-.092.015c-1.407.243-2.698.867-3.718 1.887l-.002.003h-.001v.001C3.11 5.143 2.488 6.424 2.242 7.819a.497.497 0 0 0-.026.157c-.264 1.7.022 3.561.832 5.314a11.389 11.389 0 0 0 2.286 3.256c1.804 1.804 4.08 2.93 6.409 3.17.31.032.616.048.917.048a8.06 8.06 0 0 0 1.303-.104l.051-.008c1.446-.246 2.731-.889 3.737-1.895h.001l.002-.002.037-.04c.29.245.597.47.918.673l-.158.164a7.784 7.784 0 0 1-3.272 1.95.498.498 0 0 0 .016.958l.08.021.123.034c2.419.637 4.583.984 5.658 1.134a.497.497 0 0 0 .421-.142l.93-.93a.5.5 0 0 0 .142-.421 46.791 46.791 0 0 0-.242-1.541 8.367 8.367 0 0 0 1.145.008c.176 1.04.275 1.82.317 2.187l-2.06 2.059c-1.476-.172-9.664-1.262-15.014-4.729l-.007-.004a12.701 12.701 0 0 1-2.251-1.793C.589 13.395-.178 7.648 2.752 3.974a.498.498 0 1 0-.779-.621C.412 5.31-.258 7.891.088 10.619c.343 2.719 1.674 5.357 3.745 7.428a13.654 13.654 0 0 0 2.424 1.931c3.179 2.06 7.276 3.284 10.154 3.949 2.658.614 4.744.872 5.354.94l2.1 2.1c-.048.318.049.655.294.899l5.826 5.826c.198.199.462.308.742.308.281 0 .544-.109.742-.308l2.224-2.222a1.052 1.052 0 0 0 0-1.485zM14.07 18.627l-2.428-2.429 1.923-1.923 3.114 3.114a5.881 5.881 0 0 1-2.609 1.238zm-7.671-2.442l1.911-1.91 1.923 1.923-1.567 1.567a10.356 10.356 0 0 1-2.267-1.58zm-2.283-2.972l1.566-1.566 1.923 1.924-1.91 1.91a10.397 10.397 0 0 1-1.579-2.268zM3.113 9.078l1.865 1.865-1.295 1.295a8.427 8.427 0 0 1-.57-3.16zm1.379-3.876l3.113 3.113-1.923 1.924L3.254 7.81a5.885 5.885 0 0 1 1.238-2.608zm3.31-1.946l2.431 2.432L8.31 7.611 5.195 4.497a5.903 5.903 0 0 1 2.607-1.241zm7.678 2.44l-1.915 1.915-1.923-1.923 1.57-1.571c.794.406 1.561.934 2.268 1.579zm-2.619 2.619l-1.924 1.924-1.923-1.924 1.923-1.923 1.924 1.923zm2.823 6.67l-1.414-1.414.738-.738c.125.757.356 1.48.676 2.152zm-.787-3.451l-1.332 1.332-1.923-1.923 1.923-1.923 1.402 1.401a8.248 8.248 0 0 0-.071 1.072l.001.041zm-4.664-.591L8.31 12.866l-1.924-1.923L8.31 9.02l1.923 1.923zm-1.219 2.628l1.923-1.924 1.924 1.924-1.924 1.923-1.923-1.923zm8.72 2.707a7.125 7.125 0 0 1-1.841-4.785c0-1.838.697-3.517 1.841-4.785a7.085 7.085 0 0 1 1.837 4.785c0 1.79-.649 3.47-1.837 4.785zm-2.525-7.023l-.939-.94 1.914-1.914c.092.101.183.203.27.307-.554.76-.98 1.62-1.245 2.547zm-2.972-5.571l-1.3 1.299-1.869-1.869a8.449 8.449 0 0 1 3.169.57zm-.392 15.041a8.809 8.809 0 0 1-2.203-.527l1.295-1.295 1.864 1.863a7.935 7.935 0 0 1-.956-.041zm9.782 2.323l-.579.579c-.894-.13-2.344-.37-4.016-.759a8.653 8.653 0 0 0 2.578-1.989c.555.26 1.145.458 1.759.587.097.537.184 1.067.258 1.582zm-3.176-4.079a8.07 8.07 0 0 0 2.116-5.476 8.073 8.073 0 0 0-2.116-5.477 7.12 7.12 0 0 1 4.592-1.674c1.739 0 3.346.625 4.596 1.673a8.07 8.07 0 0 0-2.117 5.478c0 2.051.748 3.976 2.117 5.478a7.14 7.14 0 0 1-9.188-.002zm5.939 5.728l1.727 1.727-1.693 1.693-1.727-1.726 1.693-1.694zm8.598 8.068l-2.223 2.223a.054.054 0 0 1-.076 0l-5.826-5.826a.054.054 0 0 1 0-.076l2.223-2.223a.052.052 0 0 1 .038-.015c.015 0 .027.005.038.015l5.826 5.826a.054.054 0 0 1 0 .076z"/></svg>

<svg 
 xmlns="http://www.w3.org/2000/svg"
 xmlns:xlink="http://www.w3.org/1999/xlink"
 width="34px" height="34px">
<path fill-rule="evenodd"  fill="rgb(255, 255, 255)"
 d="M33.693,29.985 L27.866,24.159 C27.668,23.961 27.404,23.852 27.124,23.852 C27.070,23.852 27.018,23.857 26.966,23.865 L24.867,21.765 C24.828,21.423 24.730,20.617 24.542,19.501 C27.977,18.860 30.698,16.056 31.131,12.483 C31.164,12.209 30.969,11.961 30.696,11.928 C30.423,11.895 30.175,12.090 30.142,12.363 C29.959,13.870 29.313,15.220 28.356,16.280 C27.167,14.965 26.518,13.284 26.518,11.493 C26.518,9.702 27.167,8.021 28.356,6.706 C29.313,7.765 29.959,9.116 30.142,10.623 C30.175,10.896 30.423,11.090 30.696,11.058 C30.969,11.024 31.164,10.776 31.131,10.503 C30.636,6.423 27.160,3.346 23.043,3.346 C21.464,3.346 19.988,3.799 18.738,4.580 C18.600,4.420 18.458,4.262 18.313,4.109 C18.312,4.107 18.311,4.106 18.310,4.105 C18.232,4.023 18.154,3.942 18.074,3.862 L18.047,3.834 C18.044,3.830 18.040,3.827 18.036,3.823 C15.969,1.761 13.340,0.436 10.629,0.090 C7.906,-0.257 5.328,0.407 3.370,1.961 C3.154,2.131 3.118,2.445 3.289,2.660 C3.460,2.876 3.773,2.912 3.989,2.741 C7.662,-0.174 13.403,0.599 17.342,4.538 C17.344,4.540 17.346,4.542 17.348,4.543 L17.368,4.564 C17.441,4.638 17.514,4.714 17.585,4.789 C17.586,4.790 17.587,4.791 17.588,4.792 C17.703,4.912 17.815,5.035 17.924,5.161 C17.753,5.299 17.588,5.444 17.429,5.595 C17.410,5.610 17.391,5.626 17.374,5.644 C17.363,5.655 17.353,5.667 17.343,5.679 C17.260,5.760 17.178,5.844 17.098,5.929 C16.921,5.726 16.737,5.527 16.546,5.336 C16.546,5.336 16.546,5.336 16.545,5.335 C16.545,5.335 16.545,5.335 16.544,5.335 C15.577,4.367 14.489,3.613 13.354,3.080 C13.333,3.068 13.312,3.058 13.289,3.049 C11.523,2.233 9.647,1.949 7.936,2.224 C7.905,2.226 7.874,2.231 7.844,2.239 C6.437,2.482 5.146,3.106 4.126,4.126 C4.125,4.127 4.124,4.128 4.124,4.129 C4.124,4.129 4.123,4.129 4.123,4.129 C4.123,4.129 4.123,4.129 4.123,4.130 C3.110,5.143 2.488,6.424 2.242,7.819 C2.225,7.870 2.216,7.923 2.216,7.976 C1.952,9.676 2.238,11.537 3.048,13.290 C3.056,13.312 3.067,13.334 3.079,13.355 C3.613,14.490 4.367,15.578 5.334,16.546 C7.138,18.350 9.414,19.476 11.743,19.716 C12.053,19.748 12.359,19.764 12.660,19.764 C13.106,19.764 13.542,19.729 13.963,19.660 C13.980,19.658 13.997,19.655 14.014,19.652 C15.460,19.406 16.745,18.763 17.751,17.757 C17.751,17.757 17.751,17.757 17.751,17.757 C17.751,17.757 17.752,17.757 17.752,17.757 C17.753,17.756 17.753,17.755 17.754,17.755 C17.767,17.742 17.779,17.728 17.791,17.715 C18.081,17.960 18.388,18.185 18.709,18.388 C18.657,18.443 18.604,18.498 18.551,18.552 C17.642,19.461 16.541,20.117 15.279,20.502 C15.067,20.567 14.923,20.765 14.927,20.987 C14.930,21.209 15.081,21.402 15.295,21.460 L15.375,21.481 C15.416,21.492 15.457,21.504 15.498,21.515 C17.917,22.152 20.081,22.499 21.156,22.649 C21.179,22.652 21.202,22.654 21.224,22.654 C21.356,22.654 21.482,22.602 21.577,22.507 L22.507,21.577 C22.618,21.466 22.670,21.310 22.649,21.156 C22.579,20.655 22.498,20.138 22.407,19.615 C22.617,19.631 22.829,19.640 23.043,19.640 C23.214,19.640 23.384,19.634 23.552,19.623 C23.728,20.663 23.827,21.443 23.869,21.810 L21.809,23.869 C20.333,23.697 12.145,22.607 6.795,19.140 C6.793,19.139 6.791,19.137 6.788,19.136 C5.979,18.631 5.222,18.028 4.537,17.343 C0.589,13.395 -0.178,7.648 2.752,3.974 C2.924,3.759 2.889,3.446 2.674,3.274 C2.459,3.103 2.145,3.138 1.973,3.353 C0.412,5.310 -0.258,7.891 0.088,10.619 C0.431,13.338 1.762,15.976 3.833,18.047 C4.570,18.785 5.386,19.434 6.257,19.978 C9.436,22.038 13.533,23.262 16.411,23.927 C19.069,24.541 21.155,24.799 21.765,24.867 L23.865,26.967 C23.817,27.285 23.914,27.622 24.159,27.866 L29.985,33.692 C30.183,33.891 30.447,34.000 30.727,34.000 C31.008,34.000 31.271,33.891 31.469,33.692 L33.693,31.470 C34.102,31.060 34.102,30.394 33.693,29.985 ZM14.070,18.627 L11.642,16.198 L13.565,14.275 L16.679,17.389 C15.940,18.006 15.054,18.425 14.070,18.627 ZM6.399,16.185 L8.310,14.275 L10.233,16.198 L8.666,17.765 C7.862,17.354 7.097,16.823 6.399,16.185 ZM4.116,13.213 L5.682,11.647 L7.605,13.571 L5.695,15.481 C5.050,14.774 4.522,14.007 4.116,13.213 ZM3.113,9.078 L4.978,10.943 L3.683,12.238 C3.283,11.185 3.091,10.109 3.113,9.078 ZM4.492,5.202 L7.605,8.315 L5.682,10.239 L3.254,7.810 C3.453,6.846 3.863,5.954 4.492,5.202 ZM7.802,3.256 L10.233,5.688 L8.310,7.611 L5.195,4.497 C5.947,3.868 6.837,3.457 7.802,3.256 ZM15.480,5.696 L13.565,7.611 L11.642,5.688 L13.212,4.117 C14.006,4.523 14.773,5.051 15.480,5.696 ZM12.861,8.315 L10.937,10.239 L9.014,8.315 L10.937,6.392 L12.861,8.315 ZM15.684,14.985 L14.270,13.571 L15.008,12.833 C15.133,13.590 15.364,14.313 15.684,14.985 ZM14.897,11.534 L13.565,12.866 L11.642,10.943 L13.565,9.020 L14.967,10.421 C14.921,10.772 14.896,11.130 14.896,11.493 C14.896,11.507 14.897,11.521 14.897,11.534 ZM10.233,10.943 L8.310,12.866 L6.386,10.943 L8.310,9.020 L10.233,10.943 ZM9.014,13.571 L10.937,11.647 L12.861,13.571 L10.937,15.494 L9.014,13.571 ZM17.734,16.278 C16.590,15.009 15.893,13.331 15.893,11.493 C15.893,9.655 16.590,7.976 17.734,6.708 C18.922,8.023 19.571,9.703 19.571,11.493 C19.571,13.283 18.922,14.963 17.734,16.278 ZM15.209,9.255 L14.270,8.315 L16.184,6.401 C16.276,6.502 16.367,6.604 16.454,6.708 C15.900,7.468 15.474,8.328 15.209,9.255 ZM12.237,3.684 L10.937,4.983 L9.068,3.114 C10.102,3.091 11.182,3.284 12.237,3.684 ZM11.845,18.725 C11.100,18.648 10.360,18.469 9.642,18.198 L10.937,16.903 L12.801,18.766 C12.488,18.772 12.169,18.758 11.845,18.725 ZM21.627,21.048 L21.048,21.627 C20.154,21.497 18.704,21.257 17.032,20.868 C17.855,20.452 18.599,19.912 19.255,19.256 C19.377,19.134 19.495,19.008 19.610,18.879 C20.165,19.139 20.755,19.337 21.369,19.466 C21.466,20.003 21.553,20.533 21.627,21.048 ZM18.451,16.969 C19.819,15.468 20.567,13.543 20.567,11.493 C20.567,9.442 19.819,7.518 18.451,6.016 C19.694,4.972 21.297,4.342 23.043,4.342 C24.782,4.342 26.389,4.967 27.639,6.015 C26.270,7.516 25.522,9.442 25.522,11.493 C25.522,13.544 26.270,15.469 27.639,16.971 C26.390,18.018 24.782,18.644 23.043,18.644 C21.297,18.644 19.694,18.013 18.451,16.969 ZM24.390,22.697 L26.117,24.424 L24.424,26.117 L22.697,24.391 L24.390,22.697 ZM32.988,30.765 L30.765,32.988 C30.744,33.009 30.710,33.009 30.689,32.988 L24.863,27.162 C24.842,27.141 24.842,27.107 24.863,27.086 L27.086,24.863 C27.096,24.853 27.109,24.848 27.124,24.848 C27.139,24.848 27.151,24.853 27.162,24.863 L32.988,30.689 C33.009,30.710 33.009,30.745 32.988,30.765 Z"/>
</svg>
